X: 1
T: M\"olja
R: hambo-polska
C: Grop Olle (24 okt 1985)
Z: from T\"app Nils Nilsson, Aug 1996
Z: John Chambers <jc@trillian.mit.edu>
M: 3/4
L: 1/8
K: G
D \
| "G"G>B d3 B \
| "Am"c/d/c/B/ A3 D \
| "D7"F>A c2 A2 \
| "G"B/c/B/A/ G3 D \
| "G"G>B d3 B \
| "C"c/B/c/d/e3 g \
| "D7"f>e d>c A>F \
| "G"{F}G2 G3 :|
|: c \
| "C"e2 c>e d>c \
|"G"B2 d2 c>B \
| "D7"A>G F>E (3DEF \
| "G"G>A B>c d2 \
| "C"e2 c>e d>c \
|"G"B2 d2 c>B \
| "D7"A>G F>E D>D \
| (3DEF "G"G3 :|
